X:274
T:Prince Albert Jig
R:jig 32
C:(c) P J Headford 2003
M:6/8
L:1/8
Q:1/4=140
K:G
D|G2Bd2d|e2dB2G|D2GB2d|A3-A3|
DFA d^cd|=c3-c2A|DFA d^cd|B3-B2A|!
|G2Bd2d|e2dB2G|D2GB2d|A3-A3|
DFA d^cd|c3-c2F|DFA cBA|G3-G2D|!
GBd gfg|d3-d2B|GBd gfg|f3-f2c|
FAc fef|e3-e2d|fed fed|B3-B2D|!
GBd gfg|d3-d2B|GBd gf=f|e3-e2e|
fed fed|fed fed|fed cBA|G6||

